storage/app/icons/phosphoricons/duotone/stack-plus-duotone.svg

<svg xmlns="http://www.w3.org/2000/svg" fill="currentColor" viewBox="0 0 256 256"><path d="m224 80-96 56-96-56 96-56Z" opacity=".2"/><path d="M240 200a8 8 0 0 1-8 8h-16v16a8 8 0 0 1-16 0v-16h-16a8 8 0 0 1 0-16h16v-16a8 8 0 0 1 16 0v16h16a8 8 0 0 1 8 8m-20-78.91-92 53.65-92-53.65a8 8 0 0 0-8 13.82l96 56a8 8 0 0 0 8.06 0l96-56a8 8 0 1 0-8.06-13.82M24 80a8 8 0 0 1 4-6.91l96-56a8 8 0 0 1 8.06 0l96 56a8 8 0 0 1 0 13.82l-96 56a8 8 0 0 1-8.06 0l-96-56A8 8 0 0 1 24 80m23.88 0L128 126.74 208.12 80 128 33.26ZM140 215.76l-12 7-92-53.67a8 8 0 0 0-8 13.82l96 56a8 8 0 0 0 8.06 0l16-9.33a8 8 0 1 0-8.06-13.82"/></svg>

<svg xmlns="http://www.w3.org/2000/svg" viewBox="0 0 256 256" fill="currentColor"><path d="M224,80l-96,56L32,80l96-56Z" opacity="0.2"/><path d="M240,200a8,8,0,0,1-8,8H216v16a8,8,0,0,1-16,0V208H184a8,8,0,0,1,0-16h16V176a8,8,0,0,1,16,0v16h16A8,8,0,0,1,240,200Zm-20-78.91-92,53.65L36,121.09A8,8,0,0,0,28,134.91l96,56a8,8,0,0,0,8.06,0l96-56A8,8,0,1,0,220,121.09ZM24,80a8,8,0,0,1,4-6.91l96-56a8,8,0,0,1,8.06,0l96,56a8,8,0,0,1,0,13.82l-96,56a8,8,0,0,1-8.06,0l-96-56A8,8,0,0,1,24,80Zm23.88,0L128,126.74,208.12,80,128,33.26ZM140,215.76l-12,7L36,169.09A8,8,0,0,0,28,182.91l96,56a8,8,0,0,0,8.06,0l16-9.33A8,8,0,1,0,140,215.76Z"/></svg>
